X: 2014
M: C
L: 1/8
K: A
|:\
[1 Bcde fBBc | Bcde fefa :|\
[2 Bcde fBBa | gefg a2e2 ||
|:\
(EA)AB (cB)AF | (EA)AB (cB)AG |\
(FB)Bc (dc)BA |[1 GABc defe :|[2 GEFG A2e2 :|


